source/img/icon-sun.svg

<svg width="23" height="22" viewBox="0 0 23 22" fill="none" xmlns="http://www.w3.org/2000/svg">
<path d="M15.655 7.10055C14.6779 6.11113 13.2984 5.47092 11.8039 5.47092C10.3095 5.47092 8.93 6.08203 7.95286 7.10055C6.97571 8.08996 6.34345 9.48679 6.34345 11C6.34345 12.5132 6.97571 13.9101 7.95286 14.8995C8.93 15.8889 10.3095 16.5291 11.8039 16.5291C13.2984 16.5291 14.6779 15.918 15.655 14.8995C16.6322 13.9101 17.2645 12.5132 17.2645 11C17.2645 9.48679 16.6609 8.08996 15.655 7.10055ZM14.6204 13.8519C13.9019 14.5794 12.896 15.0159 11.8039 15.0159C10.7118 15.0159 9.70597 14.5794 8.98748 13.8519C8.26899 13.1243 7.8379 12.1058 7.8379 11C7.8379 9.89419 8.26899 8.87568 8.98748 8.14817C9.70597 7.42065 10.7118 6.98415 11.8039 6.98415C12.896 6.98415 13.9019 7.42065 14.6204 8.14817C15.3389 8.87568 15.77 9.89419 15.77 11C15.77 12.1058 15.3389 13.1243 14.6204 13.8519Z" fill="white"/>
<path d="M21.9202 10.2434H19.7073C19.305 10.2434 18.9601 10.5926 18.9601 11C18.9601 11.4074 19.305 11.7566 19.7073 11.7566H21.9202C22.3226 11.7566 22.6675 11.4074 22.6675 11C22.6675 10.5926 22.3226 10.2434 21.9202 10.2434Z" fill="white"/>
<path d="M11.8039 18.246C11.4016 18.246 11.0567 18.5952 11.0567 19.0026V21.2434C11.0567 21.6508 11.4016 22 11.8039 22C12.2063 22 12.5512 21.6508 12.5512 21.2434V19.0026C12.5512 18.5952 12.2063 18.246 11.8039 18.246Z" fill="white"/>
<path d="M19.4774 17.7222L17.8967 16.1216C17.6381 15.8306 17.1495 15.8306 16.8621 16.1216C16.5747 16.4126 16.5747 16.8782 16.8621 17.1693L18.4428 18.7698C18.7302 19.0608 19.19 19.0608 19.4774 18.7698C19.7648 18.4788 19.7648 18.0132 19.4774 17.7222Z" fill="white"/>
<path d="M11.8039 0C11.4016 0 11.0567 0.349205 11.0567 0.756611V2.99735C11.0567 3.40475 11.4016 3.75396 11.8039 3.75396C12.2063 3.75396 12.5512 3.40475 12.5512 2.99735V0.756611C12.5512 0.349205 12.2063 0 11.8039 0Z" fill="white"/>
<path d="M19.5061 3.23018C19.2187 2.93918 18.7589 2.93918 18.4715 3.23018L16.8908 4.8307C16.6034 5.12171 16.6034 5.58732 16.8908 5.87832C17.1495 6.16932 17.6381 6.16932 17.9255 5.87832L19.5061 4.2778C19.7935 3.98679 19.7935 3.52118 19.5061 3.23018Z" fill="white"/>
<path d="M3.9006 10.2434H1.68766C1.2853 10.2434 0.94043 10.5926 0.94043 11C0.94043 11.4074 1.25656 11.7566 1.68766 11.7566H3.9006C4.30295 11.7566 4.64782 11.4074 4.64782 11C4.64782 10.5926 4.30295 10.2434 3.9006 10.2434Z" fill="white"/>
<path d="M6.71707 16.1216C6.45841 15.8306 5.96984 15.8306 5.68245 16.1216L4.10177 17.7222C3.81438 18.0132 3.81438 18.4788 4.10177 18.7698C4.38917 19.0608 4.849 19.0608 5.13639 18.7698L6.71707 17.1693C7.00446 16.8782 7.00446 16.4126 6.71707 16.1216Z" fill="white"/>
<path d="M6.71707 4.8307L5.13639 3.23018C4.849 2.93918 4.38917 2.93918 4.10177 3.23018C3.81438 3.52118 3.81438 3.98679 4.10177 4.2778L5.68245 5.87832C5.96984 6.16932 6.42967 6.16932 6.71707 5.87832C7.00446 5.58732 7.00446 5.12171 6.71707 4.8307Z" fill="white"/>
</svg>

<svg width="23" height="22" fill="none" xmlns="http://www.w3.org/2000/svg"><path d="M15.655 7.1c-.977-.989-2.357-1.63-3.851-1.63A5.328 5.328 0 007.953 7.1a5.583 5.583 0 00-1.61 3.9c0 1.513.633 2.91 1.61 3.9.977.989 2.356 1.63 3.85 1.63a5.327 5.327 0 003.852-1.63 5.583 5.583 0 001.61-3.9c0-1.513-.604-2.91-1.61-3.9zm-1.035 6.752a3.95 3.95 0 01-2.816 1.164 3.95 3.95 0 01-2.817-1.164A4.052 4.052 0 017.837 11c0-1.106.432-2.124 1.15-2.852a3.95 3.95 0 012.817-1.164 3.95 3.95 0 012.816 1.164A4.051 4.051 0 0115.77 11a4.052 4.052 0 01-1.15 2.852zm7.3-3.609h-2.213a.766.766 0 00-.747.757c0 .407.345.757.747.757h2.213c.403 0 .747-.35.747-.757a.766.766 0 00-.747-.757zm-10.116 8.003a.766.766 0 00-.747.757v2.24c0 .408.345.757.747.757s.747-.35.747-.757v-2.24a.766.766 0 00-.747-.757zm7.673-.524l-1.58-1.6c-.259-.291-.747-.291-1.035 0a.744.744 0 000 1.047l1.58 1.6a.722.722 0 001.035 0 .744.744 0 000-1.047zM11.804 0a.766.766 0 00-.747.757v2.24c0 .408.345.757.747.757s.747-.35.747-.757V.757A.766.766 0 0011.804 0zm7.702 3.23a.722.722 0 00-1.035 0l-1.58 1.6a.744.744 0 000 1.048c.259.291.747.291 1.035 0l1.58-1.6a.744.744 0 000-1.048zM3.9 10.243H1.689A.766.766 0 00.94 11c0 .407.317.757.748.757H3.9c.402 0 .747-.35.747-.757a.766.766 0 00-.747-.757zm2.817 5.879c-.259-.291-.747-.291-1.035 0l-1.58 1.6a.744.744 0 000 1.048.722.722 0 001.034 0l1.581-1.6a.744.744 0 000-1.048zm0-11.292l-1.58-1.6a.722.722 0 00-1.035 0 .744.744 0 000 1.048l1.58 1.6a.722.722 0 001.035 0 .744.744 0 000-1.047z" fill="#fff"/></svg>
